_includes/icons/color-greentech.svg

<svg fill="#666" height="50" viewBox="0 0 48 48" width="50" xmlns="http://www.w3.org/2000/svg"><path d="m38 17c0-7.800781-6.199219-14-14-14s-14 6.199219-14 14c0 8.199219 8 10.800781 8 16.601563v1.398437h12v-1.398437c0-5.800782 8-8.402344 8-16.601563z" fill="#cddc39"/><path d="m19.300781 8.898438s-3.402343 7.703125-1.902343 12.800781c1.101562 3.601562 4.902343 4.5 6.601562 3.199219.199219 1.5-.398437 2.800781-.898437 4.101562l3 1.101563c1.898437-5.601563-1.300782-12-3.203125-15 4.5 3.199218 5.800781 8.597656 5.800781 8.597656.402344-.199219.601562-.597656 1.101562-1.097656 2.800782-3.402344 1.300782-11.300782-10.5-13.703125z" fill="#388e3c"/><path d="m18 34v5c0 1.898438 1.398438 3.5 3.199219 3.898438.402344 1.203125 1.5 2.101562 2.800781 2.101562s2.5-.898437 2.800781-2.101562c1.800782-.398438 3.199219-2 3.199219-3.898438v-5z" fill="#388e3c"/><g fill="#4caf50"><path d="m30 39-11.601562 1.601563c.300781.699218.902343 1.398437 1.601562 1.796875l9.398438-1.296875c.402343-.601563.601562-1.300782.601562-2.101563z"/><path d="m18 36.699219v2l12-1.699219v-2z"/></g></svg>

<svg xmlns="http://www.w3.org/2000/svg" viewBox="0 0 48 48" width="50" height="50" fill="#666"><path d="M 38 17 C 38 9.199219 31.800781 3 24 3 C 16.199219 3 10 9.199219 10 17 C 10 25.199219 18 27.800781 18 33.601563 L 18 35 L 30 35 L 30 33.601563 C 30 27.800781 38 25.199219 38 17 Z" fill="#cddc39"/><path d="M 19.300781 8.898438 C 19.300781 8.898438 15.898438 16.601563 17.398438 21.699219 C 18.5 25.300781 22.300781 26.199219 24 24.898438 C 24.199219 26.398438 23.601563 27.699219 23.101563 29 L 26.101563 30.101563 C 28 24.5 24.800781 18.101563 22.898438 15.101563 C 27.398438 18.300781 28.699219 23.699219 28.699219 23.699219 C 29.101563 23.5 29.300781 23.101563 29.800781 22.601563 C 32.601563 19.199219 31.101563 11.300781 19.300781 8.898438 Z" fill="#388e3c"/><path d="M 18 34 L 18 39 C 18 40.898438 19.398438 42.5 21.199219 42.898438 C 21.601563 44.101563 22.699219 45 24 45 C 25.300781 45 26.5 44.101563 26.800781 42.898438 C 28.601563 42.5 30 40.898438 30 39 L 30 34 Z" fill="#388e3c"/><path d="M 30 39 L 18.398438 40.601563 C 18.699219 41.300781 19.300781 42 20 42.398438 L 29.398438 41.101563 C 29.800781 40.5 30 39.800781 30 39 Z" fill="#4caf50"/><path d="M 18 36.699219 L 18 38.699219 L 30 37 L 30 35 Z" fill="#4caf50"/></svg>
